build/img/sprite.svg

<svg xmlns="http://www.w3.org/2000/svg" xmlns:xlink="http://www.w3.org/1999/xlink"><defs>
<clipPath id="clip0_153_253">
<rect width="20" height="20.0688" fill="currentColor" transform="translate(0 0.320435)"/>
</clipPath>
</defs><symbol id="icon-email" viewBox="0 0 19 14">
<line x1="1.1793" y1="6" x2="1.1793" y2="14" stroke="currentColor" stroke-width="1.3"/>
<line x1="18.1793" y1="6" x2="18.1793" y2="14" stroke="currentColor" stroke-width="1.3"/>
<line x1="0.529297" y1="13.35" x2="18.5293" y2="13.35" stroke="currentColor" stroke-width="1.3"/>
<line x1="0.529297" y1="1.35" x2="18.5293" y2="1.35" stroke="currentColor" stroke-width="1.3"/>
<path d="M17.8793 3.1821L9.52932 9.67654L1.1793 3.18209V1.65H4.0293L9.52932 1.65H14.5293H17.8793V3.1821Z" fill="transparent" stroke="currentColor" stroke-width="1.3"/>
</symbol><symbol id="icon-facebook" viewBox="0 0 22 22">
<path d="M16.5 1.83325H13.75C12.5344 1.83325 11.3686 2.30674 10.5091 3.14957C9.64955 3.99239 9.16667 5.1355 9.16667 6.32743V9.02394H6.41667V12.6193H9.16667V19.81H12.8333V12.6193H15.5833L16.5 9.02394H12.8333V6.32743C12.8333 6.08905 12.9299 5.86042 13.1018 5.69186C13.2737 5.52329 13.5069 5.4286 13.75 5.4286H16.5V1.83325Z" stroke="currentColor" stroke-width="1.1" fill="transparent" stroke-linecap="round" stroke-linejoin="round"/>
</symbol><symbol id="icon-instagram" viewBox="0 0 16 16">
<path d="M7.98438 0.0625C9.31771 0.0625 10.4062 0.078125 11.25 0.109375C11.9688 0.140625 12.6094 0.265625 13.1719 0.484375C13.7135 0.692708 14.1823 0.994792 14.5781 1.39062C14.974 1.78646 15.276 2.25521 15.4844 2.79687C15.7031 3.35937 15.8281 4 15.8594 4.71875C15.8906 5.5625 15.9062 6.65104 15.9062 7.98437C15.9062 9.31771 15.8906 10.4062 15.8594 11.25C15.8281 11.9687 15.7031 12.6094 15.4844 13.1719C15.276 13.7135 14.974 14.1823 14.5781 14.5781C14.1823 14.974 13.7135 15.276 13.1719 15.4844C12.6094 15.7031 11.9688 15.8281 11.25 15.8594C10.4062 15.8906 9.31771 15.9062 7.98438 15.9062C6.65104 15.9062 5.5625 15.8906 4.71875 15.8594C4 15.8281 3.35938 15.7031 2.79688 15.4844C2.25521 15.276 1.78646 14.974 1.39062 14.5781C0.994792 14.1823 0.692708 13.7135 0.484375 13.1719C0.265625 12.6094 0.140625 11.9687 0.109375 11.25C0.078125 10.4062 0.0625 9.31771 0.0625 7.98437C0.0625 6.65104 0.078125 5.5625 0.109375 4.71875C0.140625 4 0.265625 3.35937 0.484375 2.79687C0.692708 2.25521 0.994792 1.78646 1.39062 1.39062C1.78646 0.994792 2.25521 0.692708 2.79688 0.484375C3.35938 0.265625 4 0.140625 4.71875 0.109375C5.5625 0.078125 6.65104 0.0625 7.98438 0.0625ZM7.98438 1.09375C6.59896 1.09375 5.46875 1.10937 4.59375 1.14062C4.03125 1.16146 3.51042 1.26042 3.03125 1.4375C2.28125 1.75 1.75 2.28125 1.4375 3.03125C1.26042 3.51042 1.16146 4.03125 1.14062 4.59375C1.10938 5.46875 1.09375 6.59896 1.09375 7.98437C1.09375 9.36979 1.10938 10.5 1.14062 11.375C1.16146 11.9375 1.26042 12.4583 1.4375 12.9375C1.75 13.6875 2.28125 14.2187 3.03125 14.5312C3.51042 14.7083 4.03125 14.8073 4.59375 14.8281C5.46875 14.8594 6.59896 14.875 7.98438 14.875C9.36979 14.875 10.5 14.8594 11.375 14.8281C11.9375 14.8073 12.4583 14.7083 12.9375 14.5312C13.6875 14.2187 14.2188 13.6875 14.5312 12.9375C14.7083 12.4583 14.8073 11.9375 14.8281 11.375C14.8594 10.5 14.875 9.36979 14.875 7.98437C14.875 6.59896 14.8594 5.46875 14.8281 4.59375C14.8073 4.03125 14.7083 3.51042 14.5312 3.03125C14.2188 2.28125 13.6875 1.75 12.9375 1.4375C12.4583 1.26042 11.9375 1.16146 11.375 1.14062C10.5 1.10937 9.36979 1.09375 7.98438 1.09375ZM7.98438 11.1562C8.85938 11.1562 9.60677 10.8464 10.2266 10.2266C10.8464 9.60677 11.1562 8.85937 11.1562 7.98437C11.1562 7.10937 10.8464 6.36198 10.2266 5.74219C9.60677 5.1224 8.85938 4.8125 7.98438 4.8125C7.10938 4.8125 6.36198 5.1224 5.74219 5.74219C5.1224 6.36198 4.8125 7.10937 4.8125 7.98437C4.8125 8.85937 5.1224 9.60677 5.74219 10.2266C6.36198 10.8464 7.10938 11.1562 7.98438 11.1562ZM7.98438 3.92187C9.10938 3.92187 10.0677 4.31771 10.8594 5.10937C11.651 5.90104 12.0469 6.85937 12.0469 7.98437C12.0469 9.10937 11.651 10.0677 10.8594 10.8594C10.0677 11.651 9.10938 12.0469 7.98438 12.0469C6.85938 12.0469 5.90104 11.651 5.10938 10.8594C4.31771 10.0677 3.92188 9.10937 3.92188 7.98437C3.92188 6.85937 4.31771 5.90104 5.10938 5.10937C5.90104 4.31771 6.85938 3.92187 7.98438 3.92187ZM13.1719 3.76562C13.1719 4.02604 13.0781 4.2474 12.8906 4.42969C12.7031 4.61198 12.474 4.70312 12.2031 4.70312C11.9427 4.70312 11.7214 4.61198 11.5391 4.42969C11.3568 4.2474 11.2656 4.02604 11.2656 3.76562C11.2656 3.49479 11.3568 3.26562 11.5391 3.07812C11.7214 2.89062 11.9427 2.79687 12.2031 2.79687C12.4635 2.79687 12.6901 2.89323 12.8828 3.08594C13.0755 3.27865 13.1719 3.50521 13.1719 3.76562Z" fill="currentColor"/>
</symbol><symbol id="icon-phone" viewBox="0 0 20 21">
<g clip-path="url(#clip0_153_253)">
<path d="M17.9 9.75275H9.39999V10.9569H17.9L15.8 13.0641L16.7 13.9672L19.8 10.8565C19.8974 10.7263 19.95 10.5678 19.95 10.405C19.95 10.2421 19.8974 10.0837 19.8 9.95344L16.7 6.84277L15.8 7.74587L17.9 9.75275Z" fill="currentColor"/>
<path d="M8.10001 19.7872V13.5659C8.08846 13.41 8.02154 13.2635 7.91142 13.153C7.80131 13.0425 7.65531 12.9754 7.50001 12.9638H3.10001C3.10516 13.2815 3.23325 13.5848 3.45718 13.8095C3.68112 14.0342 3.98336 14.1627 4.30001 14.1679H6.80001V19.1851H3.10001C2.86326 19.2 2.62591 19.1676 2.40176 19.0896C2.17762 19.0117 1.97115 18.8898 1.79436 18.7311C1.61757 18.5723 1.47399 18.3799 1.37196 18.165C1.26992 17.9501 1.21148 17.717 1.20001 17.4793V3.43111C1.19181 2.96681 1.36516 2.51774 1.68292 2.18013C2.00069 1.84252 2.43758 1.64322 2.90001 1.62492H6.80001V6.64212H4.40001C4.08336 6.64729 3.78112 6.77581 3.55718 7.00052C3.33325 7.22523 3.20516 7.52851 3.20001 7.84625H7.60001C7.75531 7.83466 7.90131 7.76751 8.01142 7.65701C8.12154 7.54651 8.18846 7.40002 8.20001 7.24418V0.922517C8.15232 0.76584 8.06117 0.626022 7.93721 0.519407C7.81325 0.412792 7.66161 0.343785 7.50001 0.320453H3.10001C2.70599 0.307054 2.31321 0.371716 1.94411 0.510744C1.57501 0.649771 1.23684 0.860436 0.948933 1.13069C0.661026 1.40095 0.42903 1.7255 0.266207 2.08579C0.103385 2.44608 0.01293 2.83504 1.46306e-05 3.23043V17.1782C-0.0289644 17.5773 0.0246504 17.978 0.157487 18.3552C0.290324 18.7324 0.499509 19.078 0.771886 19.3701C1.04426 19.6623 1.37394 19.8947 1.74019 20.0529C2.10643 20.211 2.50132 20.2913 2.90001 20.2889H7.50001C7.5735 20.304 7.64943 20.3022 7.72216 20.2839C7.7949 20.2655 7.86259 20.2309 7.92021 20.1828C7.97783 20.1346 8.02391 20.074 8.05504 20.0055C8.08616 19.9371 8.10153 19.8624 8.10001 19.7872Z" fill="currentColor"/>
</g>

</symbol><symbol id="icon-vkontakte" viewBox="0 0 23 16">
<path d="M0.0700912 3.99266C0.0700912 3.37082 0.493211 3.03552 1.33945 2.98675L4.60039 3.00503C4.81925 3.00503 4.96515 3.09648 5.0381 3.27938C5.37368 4.19385 5.74938 4.98334 6.16521 5.64785C6.58103 6.31237 7.12452 7.07748 7.79568 7.94317C7.85404 8.05291 7.94888 8.10778 8.08019 8.10778C8.18232 8.10778 8.26257 8.0651 8.32093 7.97975L8.38659 7.77857L8.40848 4.6145C8.40848 4.39503 8.34647 4.24871 8.22245 4.17556C8.09843 4.1024 7.86863 4.04753 7.53305 4.01095C7.27043 3.97437 7.13911 3.84025 7.13911 3.60859C7.13911 3.55981 7.14641 3.52323 7.161 3.49885C7.4674 2.70631 8.34282 2.31004 9.78726 2.31004L11.0129 2.29175C11.5673 2.29175 12.0269 2.40758 12.3916 2.63925C12.7564 2.87091 12.9388 3.2367 12.9388 3.73661V7.88831C13.0409 7.94927 13.1357 7.97975 13.2233 7.97975C13.4421 7.97975 13.6318 7.87002 13.7923 7.65054C15.3973 5.77283 16.2654 4.51696 16.3967 3.88293C16.3967 3.87073 16.4113 3.84025 16.4405 3.79148C16.5426 3.60859 16.7104 3.45008 16.9438 3.31595C17.1773 3.18183 17.3815 3.09039 17.5566 3.04161C17.615 3.01723 17.6806 3.00503 17.7536 3.00503H21.1458L21.3647 3.02332C21.6565 3.02332 21.8827 3.13916 22.0432 3.37082C22.1015 3.44398 22.1416 3.52323 22.1635 3.60859C22.1854 3.69394 22.2 3.77929 22.2073 3.86464C22.2146 3.94999 22.2182 3.99876 22.2182 4.01095V4.13898C22.1161 4.63889 21.8571 5.17233 21.4413 5.7393C21.0255 6.30627 20.4966 6.91897 19.8546 7.57739C19.2126 8.2358 18.8114 8.66865 18.6509 8.87593C18.5196 9.02225 18.4539 9.15637 18.4539 9.2783C18.4539 9.37584 18.5123 9.48558 18.629 9.60751L21.8243 12.9728C21.9994 13.1678 22.0869 13.3812 22.0869 13.6129C22.0869 13.8933 21.9556 14.125 21.693 14.3079C21.4304 14.4908 21.1167 14.5944 20.7519 14.6188L20.3799 14.6371H17.0533C17.0387 14.6371 17.0095 14.6401 16.9657 14.6462C16.9219 14.6523 16.8928 14.6554 16.8782 14.6554C16.5572 14.6554 16.2581 14.5396 15.9809 14.3079C15.8787 14.2103 15.193 13.491 13.9236 12.1497C13.8507 12.0644 13.7485 11.9851 13.6172 11.912C13.5589 12.1071 13.4823 12.3875 13.3874 12.7533C13.2926 13.1191 13.2233 13.3812 13.1795 13.5397L13.1139 13.8507C12.968 14.2774 12.6616 14.5335 12.1947 14.6188L11.8883 14.6371H9.74349C8.53249 14.6371 7.32514 14.1738 6.12144 13.2471C4.91773 12.3204 3.8344 11.1225 2.87144 9.65323C1.90848 8.18398 1.01117 6.47393 0.179519 4.52306C0.106567 4.36455 0.0700912 4.18775 0.0700912 3.99266ZM13.2233 8.72962C12.9169 8.72962 12.6397 8.65951 12.3916 8.51929C12.1436 8.37907 12.0196 8.18703 12.0196 7.94317V3.73661C12.0196 3.49275 11.9466 3.319 11.8007 3.21536C11.6548 3.11172 11.3995 3.0599 11.0347 3.0599L9.78726 3.09648C9.15988 3.09648 8.68569 3.18793 8.3647 3.37082C9.00668 3.62687 9.32767 4.04143 9.32767 4.6145V7.83344C9.29849 8.13826 9.15258 8.39126 8.88996 8.59245C8.62733 8.79363 8.33552 8.89422 8.01454 8.89422C7.57683 8.89422 7.24125 8.71743 7.0078 8.36383C5.86975 6.92506 5.02351 5.55945 4.46908 4.267L4.27211 3.79148L1.36134 3.77319C1.17166 3.77319 1.06588 3.78233 1.044 3.80062C1.02211 3.81891 1.01117 3.87073 1.01117 3.95608C1.01117 4.06582 1.02576 4.18165 1.05494 4.30358L1.51454 5.32779C2.74012 7.97366 4.07149 10.0586 5.50864 11.5828C6.94579 13.1069 8.35741 13.8689 9.74349 13.8689H11.932C12.0196 13.8689 12.0852 13.8476 12.129 13.8049C12.1728 13.7623 12.2093 13.68 12.2384 13.558L12.2822 13.3751L12.698 11.7657C12.8148 11.5462 12.9169 11.3999 13.0044 11.3267C13.1649 11.1926 13.3546 11.1255 13.5735 11.1255C13.9236 11.1255 14.2811 11.3023 14.6458 11.6559L16.5061 13.6312C16.6228 13.7897 16.7469 13.8689 16.8782 13.8689H20.4893C20.927 13.8689 21.1458 13.7775 21.1458 13.5946C21.1458 13.5336 21.124 13.4727 21.0802 13.4117L17.9068 10.1013C17.6588 9.84527 17.5347 9.57093 17.5347 9.2783C17.5347 8.98567 17.6515 8.70523 17.8849 8.43699C18.0746 8.19313 18.443 7.78771 18.9901 7.22074C19.5373 6.65377 20.0151 6.12338 20.4236 5.62956C20.8322 5.13575 21.1021 4.68766 21.2334 4.28529L21.299 4.04753C21.2845 4.02314 21.2772 3.98352 21.2772 3.92865C21.2772 3.87378 21.2699 3.82806 21.2553 3.79148H17.8192C17.6004 3.86464 17.4253 3.97437 17.294 4.12069L17.1627 4.46819C16.7979 5.3095 15.8423 6.60805 14.2957 8.36383C13.9893 8.60769 13.6318 8.72962 13.2233 8.72962Z" fill="currentColor"/>
</symbol><symbol id="logo-academy" viewBox="0 0 27 34">
<path d="M13.6426 0.0157537L13.5 0L0 1.40733V26.0129L13.5 34L27 26.0129V1.40733L13.6426 0.0157537ZM25.2344 25.0151L13.5 31.9573L1.76561 25.0151V14.9293L13.4507 21.8451L13.4701 23.0984L5.45351 18.3548L5.44295 19.5801L13.4894 24.3885L13.5088 25.675L5.46408 20.9174L5.45351 22.1427L13.5 26.9511L21.6239 22.1182V20.8929V16.909L25.2432 14.7595L25.2344 25.0151ZM25.2344 13.4519L22.0147 15.3319L20.5325 16.2071L13.4666 12.0201L13.456 13.2454L19.4957 16.818L19.4429 16.8495L19.3126 16.9247L18.4536 17.4166L13.4666 14.4689L13.456 15.6942L17.3921 18.0222L16.4591 18.6314L16.438 18.6436L13.4666 16.902L13.456 18.1273L15.4029 19.2615L13.4155 20.4483L1.7973 13.5762L13.4349 6.61831L25.2344 13.4519ZM25.2344 12.2266L13.4401 5.31075L1.76561 12.2196V2.9897L13.5 1.76442L25.2344 2.9897V12.2266Z" fill="currentColor"/>
</symbol></svg>

<svg xmlns="http://www.w3.org/2000/svg" xmlns:xlink="http://www.w3.org/1999/xlink"><defs><clipPath id="a"><path fill="currentColor" transform="translate(0 .32)" d="M0 0h20v20.069H0z"/></clipPath></defs><symbol id="icon-email"><path stroke="currentColor" stroke-width="1.3" d="M1.179 6v8M18.179 6v8M.529 13.35h18M.529 1.35h18"/><path d="M17.88 3.182 9.53 9.677 1.18 3.182V1.65h16.7v1.532Z" fill="transparent" stroke="currentColor" stroke-width="1.3"/></symbol><symbol id="icon-facebook"><path d="M16.5 1.833h-2.75a4.63 4.63 0 0 0-3.24 1.317 4.45 4.45 0 0 0-1.343 3.177v2.697h-2.75v3.595h2.75v7.191h3.666v-7.19h2.75l.917-3.596h-3.667V6.327a.89.89 0 0 1 .269-.635.926.926 0 0 1 .648-.263h2.75V1.833Z" stroke="currentColor" stroke-width="1.1" fill="transparent" stroke-linecap="round" stroke-linejoin="round"/></symbol><symbol id="icon-instagram"><path d="M7.984.063c1.334 0 2.422.015 3.266.046.719.032 1.36.157 1.922.375.541.209 1.01.51 1.406.907.396.395.698.864.906 1.406.22.562.344 1.203.375 1.922.032.843.047 1.932.047 3.265 0 1.334-.015 2.422-.047 3.266-.03.719-.156 1.36-.375 1.922a3.987 3.987 0 0 1-.906 1.406 3.987 3.987 0 0 1-1.406.906c-.563.22-1.203.344-1.922.375-.844.032-1.932.047-3.266.047a91.88 91.88 0 0 1-3.265-.047c-.719-.03-1.36-.156-1.922-.375a3.987 3.987 0 0 1-1.406-.906 3.987 3.987 0 0 1-.907-1.406C.266 12.609.141 11.969.11 11.25a91.735 91.735 0 0 1-.046-3.266c0-1.333.015-2.421.046-3.265.032-.719.157-1.36.375-1.922.209-.542.51-1.01.907-1.406A3.987 3.987 0 0 1 2.797.484C3.359.266 4 .141 4.719.11A91.733 91.733 0 0 1 7.984.063Zm0 1.03c-1.385 0-2.515.016-3.39.048-.563.02-1.084.12-1.563.296a2.853 2.853 0 0 0-1.594 1.594c-.177.48-.276 1-.296 1.563a98.83 98.83 0 0 0-.047 3.39c0 1.386.015 2.516.047 3.391.02.563.12 1.083.296 1.563.313.75.844 1.28 1.594 1.593.48.177 1 .276 1.563.297.875.031 2.005.047 3.39.047 1.386 0 2.516-.016 3.391-.047a5.015 5.015 0 0 0 1.563-.297 2.852 2.852 0 0 0 1.593-1.594c.177-.479.276-1 .297-1.562.031-.875.047-2.005.047-3.39 0-1.386-.016-2.516-.047-3.391a5.015 5.015 0 0 0-.297-1.563 2.853 2.853 0 0 0-1.594-1.594c-.479-.177-1-.276-1.562-.296a98.803 98.803 0 0 0-3.39-.047Zm0 10.063c.875 0 1.623-.31 2.243-.93.62-.62.93-1.367.93-2.242s-.31-1.622-.93-2.242a3.056 3.056 0 0 0-2.243-.93c-.875 0-1.622.31-2.242.93-.62.62-.93 1.367-.93 2.242s.31 1.623.93 2.243c.62.62 1.367.93 2.242.93Zm0-7.234c1.125 0 2.084.396 2.875 1.187.792.792 1.188 1.75 1.188 2.875s-.396 2.084-1.188 2.875c-.791.792-1.75 1.188-2.875 1.188s-2.083-.396-2.875-1.188c-.791-.791-1.187-1.75-1.187-2.875s.396-2.083 1.187-2.875c.792-.791 1.75-1.187 2.875-1.187Zm5.188-.156c0 .26-.094.481-.281.664a.949.949 0 0 1-.688.273.904.904 0 0 1-.664-.273.904.904 0 0 1-.273-.664c0-.271.09-.5.273-.688a.891.891 0 0 1 .664-.281.93.93 0 0 1 .68.289.93.93 0 0 1 .289.68Z" fill="currentColor"/></symbol><symbol id="icon-phone"><g clip-path="url(#a)" fill="currentColor"><path d="M17.9 9.753H9.4v1.204h8.5l-2.1 2.107.9.903 3.1-3.11a.754.754 0 0 0 0-.904l-3.1-3.11-.9.903 2.1 2.007ZM8.1 19.787v-6.221a.653.653 0 0 0-.6-.602H3.1a1.226 1.226 0 0 0 1.2 1.204h2.5v5.017H3.1a1.784 1.784 0 0 1-1.728-1.02 1.801 1.801 0 0 1-.172-.686V3.431a1.78 1.78 0 0 1 .483-1.25A1.767 1.767 0 0 1 2.9 1.624h3.9v5.017H4.4a1.218 1.218 0 0 0-1.2 1.204h4.4a.649.649 0 0 0 .6-.602V.923A.863.863 0 0 0 7.5.32H3.1a2.99 2.99 0 0 0-2.151.81A3.01 3.01 0 0 0 0 3.23v13.948a2.91 2.91 0 0 0 .772 2.192 2.89 2.89 0 0 0 2.128.919h4.6a.499.499 0 0 0 .6-.502Z"/></g></symbol><symbol id="icon-vkontakte"><path d="M.07 3.993c0-.622.423-.957 1.27-1.006l3.26.018c.22 0 .365.091.438.274.336.915.711 1.704 1.127 2.369.416.664.96 1.43 1.63 2.295.059.11.154.165.285.165a.276.276 0 0 0 .24-.128l.067-.201.021-3.165c0-.219-.062-.365-.186-.438-.124-.074-.353-.128-.689-.165-.263-.037-.394-.17-.394-.402 0-.05.007-.086.022-.11.306-.793 1.182-1.189 2.626-1.189l1.226-.018c.554 0 1.014.116 1.379.347.364.232.547.598.547 1.098v4.151a.562.562 0 0 0 .284.092c.22 0 .409-.11.57-.33 1.604-1.877 2.472-3.133 2.604-3.767a.29.29 0 0 1 .044-.092c.102-.182.27-.34.503-.475.233-.134.438-.226.613-.274a.507.507 0 0 1 .197-.037h3.392l.219.018c.292 0 .518.116.678.348a.63.63 0 0 1 .12.238c.022.085.037.17.044.256.008.085.011.134.011.146v.128c-.102.5-.36 1.033-.777 1.6-.415.567-.944 1.18-1.586 1.838-.642.659-1.044 1.092-1.204 1.299-.131.146-.197.28-.197.402 0 .098.058.208.175.33l3.195 3.365a.939.939 0 0 1 .263.64c0 .28-.131.512-.394.695a1.826 1.826 0 0 1-.941.31l-.372.02h-3.327a.794.794 0 0 0-.087.008.802.802 0 0 1-.088.01c-.32 0-.62-.116-.897-.348-.102-.098-.788-.817-2.057-2.158a1.106 1.106 0 0 0-.307-.238c-.058.195-.135.475-.23.841-.094.366-.164.628-.207.787l-.066.31c-.146.427-.452.684-.92.769l-.306.018H9.743c-1.21 0-2.418-.463-3.622-1.39-1.203-.927-2.287-2.124-3.25-3.594-.963-1.469-1.86-3.18-2.691-5.13a1.254 1.254 0 0 1-.11-.53ZM13.223 8.73a1.66 1.66 0 0 1-.831-.21c-.248-.14-.372-.333-.372-.577V3.737c0-.244-.073-.418-.22-.522-.145-.103-.4-.155-.765-.155l-1.248.036c-.627 0-1.101.092-1.422.275.642.256.963.67.963 1.243v3.22c-.03.304-.175.557-.438.758a1.405 1.405 0 0 1-.875.302c-.438 0-.774-.177-1.007-.53C5.87 6.925 5.024 5.559 4.469 4.267l-.197-.476-2.91-.018c-.19 0-.296.01-.318.028-.022.018-.033.07-.033.155 0 .11.015.226.044.348l.46 1.024c1.225 2.646 2.556 4.73 3.994 6.255 1.437 1.524 2.848 2.286 4.234 2.286h2.189c.088 0 .153-.021.197-.064.044-.043.08-.125.11-.247l.043-.183.416-1.61c.117-.219.219-.365.306-.438a.86.86 0 0 1 .57-.201c.35 0 .707.176 1.072.53l1.86 1.975c.117.159.24.238.372.238h3.611c.438 0 .657-.091.657-.274a.312.312 0 0 0-.066-.183l-3.173-3.31c-.248-.257-.372-.531-.372-.824 0-.292.116-.573.35-.841.19-.244.558-.65 1.105-1.216a28.203 28.203 0 0 0 1.434-1.591c.408-.494.678-.942.81-1.345l.065-.237a.243.243 0 0 1-.022-.12c0-.054-.007-.1-.022-.137H17.82a1.2 1.2 0 0 0-.525.33l-.131.347c-.365.841-1.32 2.14-2.867 3.896a1.672 1.672 0 0 1-1.073.366Z" fill="currentColor"/></symbol><symbol id="logo-academy"><path d="M13.643.016 13.5 0 0 1.407v24.606L13.5 34 27 26.013V1.407L13.643.016Zm11.591 25L13.5 31.956 1.766 25.015V14.93l11.685 6.916.02 1.253-8.017-4.743-.011 1.225 8.046 4.809.02 1.286-8.045-4.758-.01 1.226L13.5 26.95l8.124-4.833V16.91l3.62-2.15-.01 10.256Zm0-11.564-3.22 1.88-1.482.875-7.065-4.187-.011 1.225 6.04 3.573-.053.031-.13.076-.86.492-4.986-2.948-.011 1.225 3.936 2.328-.933.61-.021.012-2.971-1.742-.011 1.225 1.947 1.135-1.988 1.186-11.618-6.872 11.638-6.958 11.8 6.834Zm0-1.225L13.44 5.31 1.766 12.22V2.99L13.5 1.764 25.234 2.99v9.237Z" fill="currentColor"/></symbol></svg>
